images/svg/simple-icon.svg

<svg width="26" height="23" viewBox="0 0 26 23" fill="none" xmlns="http://www.w3.org/2000/svg">
<g id="simple-icons_frontendmentor">
<path id="Shape" fill-rule="evenodd" clip-rule="evenodd" d="M13.0842 0.230569C12.8876 0.234334 12.7004 0.315057 12.5627 0.455404C12.425 0.59575 12.3479 0.784498 12.348 0.981084V15.247C12.348 15.4461 12.4271 15.637 12.5678 15.7778C12.7085 15.9185 12.8994 15.9975 13.0984 15.9975C13.2975 15.9975 13.4885 15.9185 13.6292 15.7778C13.77 15.637 13.849 15.4461 13.849 15.247V0.981084C13.8491 0.881401 13.8292 0.782702 13.7906 0.69077C13.7521 0.598826 13.6957 0.515494 13.6245 0.445622C13.5534 0.375751 13.469 0.320754 13.3765 0.283831C13.2839 0.246908 13.1848 0.228797 13.0852 0.230569H13.0842ZM24.4403 4.504C24.3423 4.50683 24.2458 4.52877 24.1562 4.5686L17.7153 7.44351C17.5836 7.50305 17.4719 7.59932 17.3934 7.72081C17.315 7.84229 17.2733 7.98382 17.2733 8.12841C17.2733 8.273 17.315 8.41453 17.3934 8.53601C17.4719 8.6575 17.5836 8.75377 17.7153 8.81331L24.1562 11.6974C24.2531 11.741 24.3578 11.7637 24.4638 11.7641C24.6355 11.7636 24.8017 11.7042 24.9348 11.596C25.0681 11.4878 25.1601 11.3372 25.1956 11.1693C25.2313 11.0015 25.2083 10.8265 25.1306 10.6735C25.0528 10.5206 24.925 10.3989 24.7683 10.3287L19.8613 8.12943L24.7683 5.93838C24.9496 5.85681 25.0911 5.70689 25.1622 5.52136C25.2333 5.33581 25.2281 5.12969 25.1478 4.94795C25.0869 4.81235 24.9872 4.69783 24.8612 4.61883C24.7354 4.53982 24.5888 4.49986 24.4403 4.504ZM1.03633 9.73538C1.1409 9.68585 1.2555 9.66117 1.37118 9.66328V9.6643C1.53469 9.66748 1.69269 9.72401 1.82113 9.82524C1.94958 9.92647 2.04144 10.0669 2.08274 10.2251C2.86827 13.2343 4.62979 15.8977 7.09133 17.7984C9.55288 19.699 12.5754 20.7294 15.6853 20.7282C15.8843 20.7282 16.0753 20.8073 16.216 20.9481C16.3568 21.0888 16.4358 21.2798 16.4358 21.4787C16.4358 21.6778 16.3568 21.8687 16.216 22.0095C16.0753 22.1502 15.8843 22.2292 15.6853 22.2292C8.60258 22.2292 2.41083 17.4473 0.63092 10.6014C0.601975 10.4894 0.599323 10.3722 0.62317 10.259C0.647017 10.1458 0.696718 10.0396 0.768389 9.94876C0.840061 9.85793 0.931763 9.7849 1.03633 9.73538Z" fill="white"/>
</g>
</svg>

<svg xmlns="http://www.w3.org/2000/svg" width="26" height="23" fill="none"><path fill="#fff" fill-rule="evenodd" d="M13.084.23a.75.75 0 0 0-.736.751v14.266a.75.75 0 0 0 1.501 0V.981a.748.748 0 0 0-.764-.75ZM24.44 4.505a.753.753 0 0 0-.284.065l-6.44 2.875a.752.752 0 0 0 0 1.37l6.44 2.883a.75.75 0 0 0 .612-1.369L19.861 8.13l4.907-2.19a.752.752 0 0 0 .093-1.32.752.752 0 0 0-.42-.115ZM1.036 9.735a.75.75 0 0 1 .335-.072v.001a.75.75 0 0 1 .712.561 14.052 14.052 0 0 0 13.602 10.503.75.75 0 0 1 0 1.501c-7.082 0-13.274-4.782-15.054-11.628a.75.75 0 0 1 .405-.866Z" clip-rule="evenodd"/></svg>
